Numix-Light/16/status/indicator-keyboard-Sy-1.svg

<?xml version="1.0" encoding="UTF-8" standalone="no"?>
<svg
   xmlns:dc="http://purl.org/dc/elements/1.1/"
   xmlns:cc="http://creativecommons.org/ns#"
   xmlns:rdf="http://www.w3.org/1999/02/22-rdf-syntax-ns#"
   xmlns:svg="http://www.w3.org/2000/svg"
   xmlns="http://www.w3.org/2000/svg"
   xmlns:sodipodi="http://sodipodi.sourceforge.net/DTD/sodipodi-0.dtd"
   xmlns:inkscape="http://www.inkscape.org/namespaces/inkscape"
   viewBox="0 0 16 16"
   id="svg2"
   version="1.1"
   inkscape:version="0.91 r13725"
   sodipodi:docname="indicator-keyboard-Sy-1.svg">
  <metadata
     id="metadata14">
    <rdf:RDF>
      <cc:Work
         rdf:about="">
        <dc:format>image/svg+xml</dc:format>
        <dc:type
           rdf:resource="http://purl.org/dc/dcmitype/StillImage" />
      </cc:Work>
    </rdf:RDF>
  </metadata>
  <defs
     id="defs12" />
  <sodipodi:namedview
     pagecolor="#ffffff"
     bordercolor="#666666"
     borderopacity="1"
     objecttolerance="10"
     gridtolerance="10"
     guidetolerance="10"
     inkscape:pageopacity="0"
     inkscape:pageshadow="2"
     inkscape:window-width="640"
     inkscape:window-height="480"
     id="namedview10"
     showgrid="false"
     inkscape:zoom="14.75"
     inkscape:cx="8"
     inkscape:cy="8"
     inkscape:window-x="65"
     inkscape:window-y="24"
     inkscape:window-maximized="0"
     inkscape:current-layer="svg2" />
  <path
     style="fill:#353535;fill-opacity:1"
     d="M 1.5996094 0 C 0.71320937 2.9605947e-16 0 0.71320937 0 1.5996094 L 0 14.400391 C 2.9605947e-16 15.286791 0.71320937 16 1.5996094 16 L 14.400391 16 C 15.286791 16 16 15.286791 16 14.400391 L 16 1.5996094 C 16 0.71320937 15.286791 0 14.400391 0 L 1.5996094 0 z M 4.8945312 4.7246094 C 5.0625312 4.7246094 5.228625 4.7357656 5.390625 4.7597656 C 5.552625 4.7837656 5.7018438 4.817375 5.8398438 4.859375 C 5.9838437 4.895375 6.1125625 4.936375 6.2265625 4.984375 C 6.3465625 5.032375 6.4454375 5.0846719 6.5234375 5.1386719 L 6.3085938 5.6503906 C 6.1345937 5.5303906 5.9219219 5.4352813 5.6699219 5.3632812 C 5.4239219 5.2912813 5.1551875 5.2558594 4.8671875 5.2558594 C 4.6691875 5.2558594 4.4863594 5.2763594 4.3183594 5.3183594 C 4.1563594 5.3543594 4.0164844 5.4178125 3.8964844 5.5078125 C 3.7764844 5.5918125 3.6794219 5.6980781 3.6074219 5.8300781 C 3.5414219 5.9620781 3.5097656 6.1225938 3.5097656 6.3085938 C 3.5097656 6.5005938 3.5451875 6.6629219 3.6171875 6.7949219 C 3.6891875 6.9269219 3.7880625 7.0407187 3.9140625 7.1367188 C 4.0460625 7.2327187 4.1990469 7.3184844 4.3730469 7.3964844 C 4.5470469 7.4744844 4.7354531 7.556625 4.9394531 7.640625 C 5.1854531 7.742625 5.4168125 7.8433125 5.6328125 7.9453125 C 5.8548125 8.0473125 6.0469844 8.1686406 6.2089844 8.3066406 C 6.3709844 8.4446406 6.4997031 8.6125469 6.5957031 8.8105469 C 6.6917031 9.0085469 6.7402344 9.2510625 6.7402344 9.5390625 C 6.7402344 10.103063 6.5424844 10.526594 6.1464844 10.808594 C 5.7564844 11.090594 5.2247344 11.230469 4.5527344 11.230469 C 4.3127344 11.230469 4.0944844 11.215547 3.8964844 11.185547 C 3.6984844 11.155547 3.5212344 11.120125 3.3652344 11.078125 C 3.2092344 11.030125 3.07675 10.981594 2.96875 10.933594 C 2.86075 10.885594 2.7767969 10.844594 2.7167969 10.808594 L 2.9160156 10.277344 C 2.9760156 10.313344 3.0562031 10.354344 3.1582031 10.402344 C 3.2602031 10.450344 3.3795781 10.498875 3.5175781 10.546875 C 3.6555781 10.588875 3.8123281 10.624297 3.9863281 10.654297 C 4.1603281 10.684297 4.3525 10.699219 4.5625 10.699219 C 5.0485 10.699219 5.4253125 10.613453 5.6953125 10.439453 C 5.9653125 10.259453 6.1015625 9.970219 6.1015625 9.5742188 C 6.1015625 9.3462187 6.0567969 9.1578125 5.9667969 9.0078125 C 5.8827969 8.8518125 5.769 8.7230938 5.625 8.6210938 C 5.481 8.5130937 5.3149062 8.4235625 5.1289062 8.3515625 C 4.9429062 8.2735625 4.7489219 8.1914219 4.5449219 8.1074219 C 4.2869219 8.0054219 4.0555625 7.9009687 3.8515625 7.7929688 C 3.6475625 7.6849688 3.4740781 7.5655937 3.3300781 7.4335938 C 3.1860781 7.2955937 3.0740938 7.1388438 2.9960938 6.9648438 C 2.9240937 6.7908437 2.8886719 6.5875156 2.8886719 6.3535156 C 2.8886719 5.8195156 3.0659219 5.4146719 3.4199219 5.1386719 C 3.7739219 4.8626719 4.2645313 4.7246094 4.8945312 4.7246094 z M 7.1269531 6.4433594 L 7.7480469 6.4433594 C 7.8140469 6.7313594 7.898 7.0429062 8 7.3789062 C 8.102 7.7089062 8.2157969 8.0502969 8.3417969 8.4042969 C 8.4737969 8.7582969 8.6174375 9.1221406 8.7734375 9.4941406 C 8.9294375 9.8661408 9.0973437 10.231797 9.2773438 10.591797 C 9.4093438 10.219797 9.5269062 9.8690627 9.6289062 9.5390625 C 9.7309062 9.2090625 9.8242031 8.8825937 9.9082031 8.5585938 C 9.9982034 8.2285937 10.082156 7.8927813 10.160156 7.5507812 C 10.244156 7.2087813 10.329922 6.8393594 10.419922 6.4433594 L 11.005859 6.4433594 C 10.813859 7.3133594 10.593656 8.1584688 10.347656 8.9804688 C 10.101656 9.8024689 9.834875 10.556234 9.546875 11.240234 C 9.432875 11.510234 9.3172656 11.741594 9.1972656 11.933594 C 9.0772656 12.131594 8.9410156 12.293922 8.7910156 12.419922 C 8.6470156 12.545922 8.4753438 12.637266 8.2773438 12.697266 C 8.0853437 12.757266 7.85775 12.787109 7.59375 12.787109 C 7.44375 12.787109 7.3056875 12.770375 7.1796875 12.734375 C 7.0596875 12.698375 6.9850781 12.670344 6.9550781 12.652344 L 7.0722656 12.167969 C 7.0962656 12.185969 7.1615313 12.208281 7.2695312 12.238281 C 7.3835313 12.274281 7.5010937 12.292969 7.6210938 12.292969 C 7.7890938 12.292969 7.9402656 12.274281 8.0722656 12.238281 C 8.2102656 12.202281 8.3314531 12.140781 8.4394531 12.050781 C 8.5474531 11.966781 8.6445156 11.854797 8.7285156 11.716797 C 8.8185156 11.578797 8.9062344 11.405312 8.9902344 11.195312 C 8.7922344 10.829313 8.6000625 10.448734 8.4140625 10.052734 C 8.2340625 9.6567342 8.0623906 9.2574687 7.9003906 8.8554688 C 7.7443906 8.4474688 7.60075 8.042625 7.46875 7.640625 C 7.33675 7.232625 7.2229531 6.8333594 7.1269531 6.4433594 z M 13.013672 8.8417969 L 13.283203 8.8417969 L 13.283203 12.896484 L 12.902344 12.896484 L 12.902344 9.421875 C 12.859444 9.468675 12.802622 9.5157063 12.732422 9.5664062 C 12.666122 9.6171062 12.589706 9.66805 12.503906 9.71875 C 12.418106 9.76555 12.329928 9.812575 12.236328 9.859375 C 12.142728 9.902275 12.048678 9.9375437 11.955078 9.9648438 L 11.84375 9.671875 C 12.07775 9.5899751 12.28545 9.4880812 12.46875 9.3632812 C 12.65205 9.2345813 12.834272 9.0601969 13.013672 8.8417969 z "
     id="path4" />
</svg>

<svg xmlns="http://www.w3.org/2000/svg" viewBox="0 0 16 16">
 <path d="m 1.6 0 c -0.886 0 -1.6 0.713 -1.6 1.6 l 0 12.801 c 0 0.886 0.713 1.6 1.6 1.6 l 12.801 0 c 0.886 0 1.6 -0.713 1.6 -1.6 l 0 -12.801 c 0 -0.886 -0.713 -1.6 -1.6 -1.6 l -12.801 0 z m 3.295 4.725 c 0.168 0 0.334 0.011 0.496 0.035 c 0.162 0.024 0.311 0.058 0.449 0.1 c 0.144 0.036 0.273 0.077 0.387 0.125 c 0.12 0.048 0.219 0.1 0.297 0.154 l -0.215 0.512 c -0.174 -0.12 -0.387 -0.215 -0.639 -0.287 c -0.246 -0.072 -0.515 -0.107 -0.803 -0.107 c -0.198 0 -0.381 0.02 -0.549 0.063 c -0.162 0.036 -0.302 0.099 -0.422 0.189 c -0.12 0.084 -0.217 0.19 -0.289 0.322 c -0.066 0.132 -0.098 0.293 -0.098 0.479 c 0 0.192 0.035 0.354 0.107 0.486 c 0.072 0.132 0.171 0.246 0.297 0.342 c 0.132 0.096 0.285 0.182 0.459 0.26 c 0.174 0.078 0.362 0.16 0.566 0.244 c 0.246 0.102 0.477 0.203 0.693 0.305 c 0.222 0.102 0.414 0.223 0.576 0.361 c 0.162 0.138 0.291 0.306 0.387 0.504 c 0.096 0.198 0.145 0.441 0.145 0.729 c 0 0.564 -0.198 0.988 -0.594 1.27 c -0.39 0.282 -0.922 0.422 -1.594 0.422 c -0.24 0 -0.458 -0.015 -0.656 -0.045 c -0.198 -0.03 -0.375 -0.065 -0.531 -0.107 c -0.156 -0.048 -0.288 -0.097 -0.396 -0.145 c -0.108 -0.048 -0.192 -0.089 -0.252 -0.125 l 0.199 -0.531 c 0.06 0.036 0.14 0.077 0.242 0.125 c 0.102 0.048 0.221 0.097 0.359 0.145 c 0.138 0.042 0.295 0.077 0.469 0.107 c 0.174 0.03 0.366 0.045 0.576 0.045 c 0.486 0 0.863 -0.086 1.133 -0.26 c 0.27 -0.18 0.406 -0.469 0.406 -0.865 c 0 -0.228 -0.045 -0.416 -0.135 -0.566 c -0.084 -0.156 -0.198 -0.285 -0.342 -0.387 c -0.144 -0.108 -0.31 -0.198 -0.496 -0.27 c -0.186 -0.078 -0.38 -0.16 -0.584 -0.244 c -0.258 -0.102 -0.489 -0.206 -0.693 -0.314 c -0.204 -0.108 -0.377 -0.227 -0.521 -0.359 c -0.144 -0.138 -0.256 -0.295 -0.334 -0.469 c -0.072 -0.174 -0.107 -0.377 -0.107 -0.611 c 0 -0.534 0.177 -0.939 0.531 -1.215 c 0.354 -0.276 0.845 -0.414 1.475 -0.414 z m 2.232 1.719 l 0.621 0 c 0.066 0.288 0.15 0.6 0.252 0.936 c 0.102 0.33 0.216 0.671 0.342 1.025 c 0.132 0.354 0.276 0.718 0.432 1.09 c 0.156 0.372 0.324 0.738 0.504 1.098 c 0.132 -0.372 0.25 -0.723 0.352 -1.053 c 0.102 -0.33 0.195 -0.656 0.279 -0.98 c 0.09 -0.33 0.174 -0.666 0.252 -1.01 c 0.084 -0.342 0.17 -0.711 0.26 -1.107 l 0.586 0 c -0.192 0.87 -0.412 1.715 -0.658 2.537 c -0.246 0.822 -0.513 1.576 -0.801 2.26 c -0.114 0.27 -0.23 0.501 -0.35 0.693 c -0.12 0.198 -0.256 0.36 -0.406 0.486 c -0.144 0.126 -0.316 0.217 -0.514 0.277 c -0.192 0.06 -0.42 0.09 -0.684 0.09 c -0.15 0 -0.288 -0.017 -0.414 -0.053 c -0.12 -0.036 -0.195 -0.064 -0.225 -0.082 l 0.117 -0.484 c 0.024 0.018 0.089 0.04 0.197 0.07 c 0.114 0.036 0.232 0.055 0.352 0.055 c 0.168 0 0.319 -0.019 0.451 -0.055 c 0.138 -0.036 0.259 -0.098 0.367 -0.188 c 0.108 -0.084 0.205 -0.196 0.289 -0.334 c 0.09 -0.138 0.178 -0.311 0.262 -0.521 c -0.198 -0.366 -0.39 -0.747 -0.576 -1.143 c -0.18 -0.396 -0.352 -0.795 -0.514 -1.197 c -0.156 -0.408 -0.3 -0.813 -0.432 -1.215 c -0.132 -0.408 -0.246 -0.807 -0.342 -1.197 z m 5.887 2.398 l 0.27 0 l 0 4.055 l -0.381 0 l 0 -3.475 c -0.043 0.047 -0.1 0.094 -0.17 0.145 c -0.066 0.051 -0.143 0.102 -0.229 0.152 c -0.086 0.047 -0.174 0.094 -0.268 0.141 c -0.094 0.043 -0.188 0.078 -0.281 0.105 l -0.111 -0.293 c 0.234 -0.082 0.442 -0.184 0.625 -0.309 c 0.183 -0.129 0.366 -0.303 0.545 -0.521 z" style="fill:#353535;fill-opacity:1"/>
</svg>
